X:1
T:Title
%%score { ( 1 3 ) | 2 }
L:1/8
M:2/4
K:Eb
V:1 treble nm="Grand Piano"
V:3 treble 
V:2 bass 
V:1
 z2 z[Q:1/4=92] G | GF ED | C=B, CE | DF ED |[M:3/8] C3 |[M:1/8] c |[M:2/4] c>B A>G | F=E FG | %8
 Ac BA |[M:3/8] G3 |[M:1/8] G |[M:2/4] GF ED | C=B, CE | DF ED |[M:3/8] C3 |[M:1/8] c | %16
[M:2/4] cB AG | FE DE | GF ED |[M:3/8] C3 |[M:1/8] c |[M:2/4] c=B cd | c2 ce | ed c=B |[M:3/8] c3 | %25
[M:1/8] c |[M:2/4] c=B cd | c2 ce | ed c=B |[M:3/8] c3 |[M:1/8] c |[M:2/4] cB AG | FE DE | GF ED | %34
[M:3/8] C3 |] %35
V:2
 z4 | C,4 | [E,G,]4 | [=B,,F,G,]4 |[M:3/8] C,2 E, |[M:1/8] z |[M:2/4] C,4 | [F,A,]4 | C,2 [F,A,]2 | %9
[M:3/8] [C,E,G,]3 |[M:1/8] z |[M:2/4] C,4 | [E,G,]4 | [=B,,F,G,]4 |[M:3/8] C,2 E, |[M:1/8] z | %16
[M:2/4] C,4 | [F,A,]4 | [=B,,F,G,]4 |[M:3/8] [C,E,G,]3 |[M:1/8] z |[M:2/4] [C,F,A,]4 | [C,E,G,]4 | %23
 [=B,,F,G,]4 |[M:3/8] [C,E,G,]3 |[M:1/8] z |[M:2/4] [C,F,A,]4 | [C,E,G,]4 | [=B,,F,G,]4 | %29
[M:3/8] [C,E,G,]3 |[M:1/8] z |[M:2/4] C,4 | [F,A,]4 | [=B,,F,G,]4 |[M:3/8] [C,E,G,]3 |] %35
V:3
 x4 | x4 | x4 | x4 |[M:3/8] z z G, |[M:1/8] x |[M:2/4] x4 | x4 | x4 |[M:3/8] x3 |[M:1/8] x | %11
[M:2/4] x4 | x4 | x4 |[M:3/8] z z G, |[M:1/8] x |[M:2/4] x4 | x4 | x4 |[M:3/8] x3 |[M:1/8] x | %21
[M:2/4] x4 | x4 | x4 |[M:3/8] x3 |[M:1/8] x |[M:2/4] x4 | x4 | x4 |[M:3/8] x3 |[M:1/8] x | %31
[M:2/4] x4 | x4 | x4 |[M:3/8] x3 |] %35

